public/icons/wd.svg

<svg width="30" height="30" viewBox="0 0 30 30" fill="none" xmlns="http://www.w3.org/2000/svg">
<path d="M27.5 3.75H2.5C2.16848 3.75 1.85054 3.8817 1.61612 4.11612C1.3817 4.35054 1.25 4.66848 1.25 5V21.25C1.25 21.5815 1.3817 21.8995 1.61612 22.1339C1.85054 22.3683 2.16848 22.5 2.5 22.5H8.3375L7.0875 24.325C6.9642 24.5072 6.89117 24.7188 6.87581 24.9382C6.86044 25.1577 6.90328 25.3774 7 25.575C7.1046 25.7769 7.26232 25.9465 7.45615 26.0654C7.64998 26.1844 7.87259 26.2482 8.1 26.25H21.925C22.1524 26.2482 22.375 26.1844 22.5689 26.0654C22.7627 25.9465 22.9204 25.7769 23.025 25.575C23.1217 25.3774 23.1646 25.1577 23.1492 24.9382C23.1338 24.7188 23.0608 24.5072 22.9375 24.325L16.025 14.5C15.9098 14.335 15.7565 14.2002 15.578 14.1071C15.3996 14.0141 15.2013 13.9655 15 13.9655C14.7987 13.9655 14.6004 14.0141 14.422 14.1071C14.2435 14.2002 14.0902 14.335 13.975 14.5L9.2 21.25H9.0375H2.5V5H27.5V21.25H24.375C24.2092 21.25 24.0503 21.3158 23.9331 21.4331C23.8158 21.5503 23.75 21.7092 23.75 21.875C23.75 22.0408 23.8158 22.1997 23.9331 22.3169C24.0503 22.4342 24.2092 22.5 24.375 22.5H27.5C27.8315 22.5 28.1495 22.3683 28.3839 22.1339C28.6183 21.8995 28.75 21.5815 28.75 21.25V5C28.75 4.66848 28.6183 4.35054 28.3839 4.11612C28.1495 3.8817 27.8315 3.75 27.5 3.75ZM15 15.1875L15.5125 14.8375L15 15.1875L21.925 25H8.075L15 15.1875Z" fill="#736AE4"/>
</svg>

<svg xmlns="http://www.w3.org/2000/svg" width="30" height="30" fill="none"><path fill="#736AE4" d="M27.5 3.75h-25A1.25 1.25 0 0 0 1.25 5v16.25A1.25 1.25 0 0 0 2.5 22.5h5.838l-1.25 1.825A1.25 1.25 0 0 0 7 25.575a1.25 1.25 0 0 0 1.1.675h13.825a1.25 1.25 0 0 0 1.1-.675 1.25 1.25 0 0 0-.087-1.25L16.024 14.5a1.25 1.25 0 0 0-2.05 0L9.2 21.25H2.5V5h25v16.25h-3.125a.624.624 0 1 0 0 1.25H27.5a1.25 1.25 0 0 0 1.25-1.25V5a1.25 1.25 0 0 0-1.25-1.25ZM15 15.188l.512-.35-.512.35L21.925 25H8.075L15 15.187Z"/></svg>
